X:332
M:C|
L:1/8
K:A
e|a2ed cAec|B>cde fBbg|a2ed cAec|dfed cAA:|
e|c/B/A EA cAec|Bcde fBed|c/B/A EA cAec|dBed cAAe|c/B/A EA cAec|

